X: 42799
T: Whitfield Brow
R: waltz
M: 3/4
K: Dmajor
|:d3 f a2|B2 d2 f2|A3 B d2|F2 E2 D2|
B D3 B2|A D3 F2|G3 A B2|E6|
d3 f a2|B2 d2 f2|A3 B d2|F2 G2 A2|
B D3 B2|A D3 C2|D6|1 D6:|2 F2 G2 A2||
B d3 c2|A4 D2|G c3 A2|F2 G2 A2|
B D3 B2|A D3 F2|E6|E4 A2|
B d3 c2|A4 D2|G c3 A2|F2 G2 A2|
B D3 B2|A D3 C2|D6|F2 G2 A2|
B d3 c2|A4 D2|G c3 A2|F2 G2 A2|
B D3 B2|A D3 F2|E6|E2 F2 A2|
B d3 c2|A3 c e2|f d3 A2|F2 G2 A2|
B D3 B2|A D3 C2|D6|D6||

